brandFactory_export/3.Masa/Biblioteca_3Masa.svg

<?xml version="1.0" encoding="UTF-8"?>
<svg width="24px" height="24px" viewBox="0 0 24 24" version="1.1" xmlns="http://www.w3.org/2000/svg" xmlns:xlink="http://www.w3.org/1999/xlink">
    <title>3.Masa/Biblioteca_3Masa</title>
    <g id="Symbols" stroke="none" stroke-width="1" fill="none" fill-rule="evenodd">
        <g id="3.Masa/Biblioteca_3Masa" fill="#5CB615" fill-rule="nonzero">
            <path d="M23.1697479,2.05714286 C22.9142857,2.03697479 16.9411765,1.60336134 11.8084034,4.23193277 C6.6789916,1.60672269 0.709243697,2.03361345 0.453781513,2.05714286 C0.198319328,2.07731092 0,2.28907563 0,2.54453782 L0,18.6957983 C0,18.9680672 0.221848739,19.1865546 0.490756303,19.1865546 C6.77983193,19.1865546 11.5361345,21.6235294 11.5831933,21.6470588 C11.6537815,21.6840336 11.7310924,21.7042017 11.8117647,21.7042017 C11.8420168,21.7042017 11.8722689,21.6840336 11.9058824,21.6773109 C11.9529412,21.6672269 12,21.6672269 12.0403361,21.6436975 L12.0605042,21.6336134 L12.0672269,21.6336134 L12.0705882,21.6302521 C12.3731092,21.4789916 17.0218487,19.1865546 23.1327731,19.1865546 C23.405042,19.1865546 23.6235294,18.9680672 23.6235294,18.6957983 L23.6235294,2.54453782 C23.6235294,2.28907563 23.4252101,2.07731092 23.1697479,2.05714286" id="Path"></path>
        </g>
    </g>
</svg>

<svg width="24" height="24" viewBox="0 0 24 24" xmlns="http://www.w3.org/2000/svg"><path d="M23.17 2.057c-.256-.02-6.229-.454-11.362 2.175C6.68 1.607.71 2.034.454 2.057A.49.49 0 000 2.545v16.15c0 .273.222.492.49.492 6.29 0 11.046 2.437 11.093 2.46a.49.49 0 00.229.057c.03 0 .06-.02.094-.027.047-.01.094-.01.134-.033l.02-.01h.007l.004-.004c.302-.151 4.95-2.443 11.062-2.443a.49.49 0 00.49-.491V2.545a.49.49 0 00-.453-.488" fill="#5CB615" fill-rule="nonzero"/></svg>
